X: 37485
T: Sligo Indians
R: jig
M: 6/8
K: Dminor
Add Ada|gef dcA|Add Ada|fgg aec|
daa cbb|ged ~c3|dAF AGE|EDA, D3:|
~f3 ~g3|agf ged|g2d a2d|bag age|
fcc gcc|agf ged|dAF AGE|EDA, D3:|

